X: 71
M: 6/8
L: 1/8
K: G
uc|vBcA G2D|E2D G2c|BcA G2A|Bdd edc|
uA|vB2B BcA|B2d def|g2f e2d|dcB ABc|


